images/logo.svg

<svg width="101" height="30" viewBox="0 0 101 30" fill="none" xmlns="http://www.w3.org/2000/svg">
<path d="M12.5394 1.53809H28.5614L16.782 19.2095H0.76001L12.5394 1.53809Z" fill="#19B5F1"/>
<path d="M13.241 20.8474L8.67859 27.692H25.4606L37.24 10.0205H24.8538L17.6369 20.8474H13.241Z" fill="#CA6AEB"/>
<path d="M42 7H44.6237L48.6687 19.8457H48.7124L52.7574 7H55.3811L49.9587 23H47.4224L42 7Z" fill="url(#paint0_linear_21_12730)"/>
<path d="M67.0044 17.8343V23H64.4681V18.4743L62.8938 16.6686H57.9087V23H55.3724V7H64.6867L66.9169 9.35429V14.2686L65.3208 15.9371L67.0044 17.8343ZM57.9087 14.4743H63.5498L64.4243 13.56V10.1543L63.5498 9.24H57.9087V14.4743Z" fill="url(#paint1_linear_21_12730)"/>
<path d="M68.0974 7H70.4151L77.6304 18.6343H77.6741V7H80.1011V23H77.7834L70.5681 11.3886H70.5244V23H68.0974V7Z" fill="url(#paint2_linear_21_12730)"/>
<path d="M80.8762 20.9657V18.2686L82.8222 16.2571H88.4414V14.5657L87.6324 13.72H84.1996L83.3906 14.5657V15.2971H80.9637V13.9714L83.1939 11.6171H88.6381L90.8683 13.9714V23H88.6163V21.24L86.8671 23H82.8222L80.8762 20.9657ZM86.6266 20.9657L88.4414 19.1371V18.1771H84.0029L83.3032 18.8857V20.28L83.9591 20.9657H86.6266Z" fill="url(#paint3_linear_21_12730)"/>
<path d="M91.2047 20.8743V19.48H93.6316V20.2114L94.2438 20.8743H97.9608L98.573 20.2114V18.9771L97.939 18.3143H93.2381L91.2921 16.2571V13.6971L93.2818 11.6171H98.7698L100.781 13.7429V15.1371H98.3544V14.4057L97.7422 13.7429H94.3313L93.7191 14.4057V15.5486L94.3532 16.2114H99.0322L101 18.2914V20.92L99.0103 23H93.2162L91.2047 20.8743Z" fill="url(#paint4_linear_21_12730)"/>
<defs>
<linearGradient id="paint0_linear_21_12730" x1="42" y1="13.5" x2="104" y2="20.5" gradientUnits="userSpaceOnUse">
<stop stop-color="white"/>
<stop offset="1" stop-color="white" stop-opacity="0"/>
</linearGradient>
<linearGradient id="paint1_linear_21_12730" x1="42" y1="13.5" x2="104" y2="20.5" gradientUnits="userSpaceOnUse">
<stop stop-color="white"/>
<stop offset="1" stop-color="white" stop-opacity="0"/>
</linearGradient>
<linearGradient id="paint2_linear_21_12730" x1="42" y1="13.5" x2="104" y2="20.5" gradientUnits="userSpaceOnUse">
<stop stop-color="white"/>
<stop offset="1" stop-color="white" stop-opacity="0"/>
</linearGradient>
<linearGradient id="paint3_linear_21_12730" x1="42" y1="13.5" x2="104" y2="20.5" gradientUnits="userSpaceOnUse">
<stop stop-color="white"/>
<stop offset="1" stop-color="white" stop-opacity="0"/>
</linearGradient>
<linearGradient id="paint4_linear_21_12730" x1="42" y1="13.5" x2="104" y2="20.5" gradientUnits="userSpaceOnUse">
<stop stop-color="white"/>
<stop offset="1" stop-color="white" stop-opacity="0"/>
</linearGradient>
</defs>
</svg>

<svg xmlns="http://www.w3.org/2000/svg" width="101" height="30" fill="none" viewBox="0 0 101 30"><path fill="#19b5f1" d="M12.54 1.538h16.02L16.782 19.21H.76z"/><path fill="#ca6aeb" d="m13.241 20.847-4.562 6.845H25.46l11.78-17.671H24.854l-7.217 10.826z"/><path fill="url(#a)" d="M42 7h2.624l4.045 12.846h.043L52.757 7h2.624L49.96 23h-2.537z"/><path fill="url(#b)" d="M67.004 17.834V23h-2.536v-4.526l-1.574-1.805h-4.985V23h-2.537V7h9.315l2.23 2.354v4.915l-1.596 1.668zm-9.095-3.36h5.64l.875-.914v-3.406l-.874-.914h-5.641z"/><path fill="url(#c)" d="M68.097 7h2.318l7.215 11.634h.044V7h2.427v16h-2.318l-7.215-11.611h-.044V23h-2.427z"/><path fill="url(#d)" d="M80.876 20.966v-2.697l1.946-2.012h5.62v-1.691l-.81-.846H84.2l-.81.846v.731h-2.426v-1.326l2.23-2.354h5.444l2.23 2.354V23h-2.252v-1.76L86.867 23h-4.045zm5.75 0 1.815-1.829v-.96h-4.438l-.7.709v1.394l.656.686z"/><path fill="url(#e)" d="M91.205 20.874V19.48h2.427v.731l.612.663h3.717l.612-.663v-1.234l-.634-.663h-4.7l-1.947-2.057v-2.56l1.99-2.08h5.488l2.011 2.126v1.394h-2.427v-.731l-.612-.663h-3.41l-.613.663v1.143l.634.662h4.68l1.967 2.08v2.629L99.01 23h-5.794z"/><defs><linearGradient id="a" x1="42" x2="104" y1="13.5" y2="20.5" gradientUnits="userSpaceOnUse"><stop stop-color="#fff"/><stop offset="1" stop-color="#fff" stop-opacity="0"/></linearGradient><linearGradient id="b" x1="42" x2="104" y1="13.5" y2="20.5" gradientUnits="userSpaceOnUse"><stop stop-color="#fff"/><stop offset="1" stop-color="#fff" stop-opacity="0"/></linearGradient><linearGradient id="c" x1="42" x2="104" y1="13.5" y2="20.5" gradientUnits="userSpaceOnUse"><stop stop-color="#fff"/><stop offset="1" stop-color="#fff" stop-opacity="0"/></linearGradient><linearGradient id="d" x1="42" x2="104" y1="13.5" y2="20.5" gradientUnits="userSpaceOnUse"><stop stop-color="#fff"/><stop offset="1" stop-color="#fff" stop-opacity="0"/></linearGradient><linearGradient id="e" x1="42" x2="104" y1="13.5" y2="20.5" gradientUnits="userSpaceOnUse"><stop stop-color="#fff"/><stop offset="1" stop-color="#fff" stop-opacity="0"/></linearGradient></defs></svg>
